X: 1
T: The Pinch Of Snuff
R: reel
M: 4/4
L: 1/8
K: Dmaj
|: F2DF EFDE | F2DF EFGE | F2DF EFDF | G2BG EFGE :|
|: DFAF BFAF | DFAF EA,CE | DFAF BFAF |1 GABG EA,CE :|2 GABG EFGA ||
K:G
|: B2GB ABGA | B2GB ABcA | B2GB ABGB | cdec ABcA :|
|: GBdB eBdB | GBdB ADFA | GBdB eBdB |1 cdec ADFA :|2 cdec ABcd ||
K:A
|: c2Ac BcAB | c2Ac BcdB | c2Ac BcAB |1 defd BcdB :|2 defd BE^GB ||
|: Acec fcec | Acec BEGB | Acec fcec | defd BcdB :|


Tune 591	Setting 13594

